X:13
T:B013-  Amoret and Phyllis
S:via BB, from 'Choice Ayres & Songs', 2nd bk, 1679
Q:1/4=120
L:1/4
M:C|
K:Gm
d|\
B3/2 A/2GA|^F3/2 G/2 AD|G3/2  A/2B(A/2G/2)|\
d3B|c3/2 d/2 e(d/2c/2)|f(e/2d/2)A3/2F/2|B3/2 c/2c3/2 B/2|\
B3B|=B3/2B/2cc|d3/2 B/2Ad|G3/2A/2Bc|\
^F3c|ffdB|c3/2 d/2e2|zz/2d/2c(B/2A/2)|\
B3/2 c/2d3/2 B/2|(e/2d/2) (c/2B/2)A3/2 G/2|.G3|]

